layouts/icon-pack/spell_sprint.svg

<?xml version="1.0" encoding="UTF-8"?>
<svg width="1200pt" height="1200pt" version="1.1" viewBox="0 0 1200 1200" xmlns="http://www.w3.org/2000/svg">
 <g fill="#fff">
  <path d="m1053.4 939.84c-3.6406-3.7031-8.6133-5.7852-13.805-5.7852-5.1914 0-10.164 2.082-13.805 5.7852l-98.109 99.398c-3.1797 3.2188-4.1133 8.0312-2.3633 12.203 1.7461 4.1719 5.832 6.8828 10.355 6.875h51.797v25.992c0.0625 5.0859 4.1719 9.1953 9.2578 9.2578h85.758c2.4531 0 4.8047-0.97656 6.5391-2.7148 1.7305-1.7344 2.7031-4.0898 2.6953-6.543v-25.992h51.797c4.5234 0.007813 8.6094-2.7031 10.355-6.875 1.75-4.1719 0.81641-8.9844-2.3633-12.203z"/>
  <path d="m1053.4 683.25c-3.6406-3.7031-8.6133-5.7852-13.805-5.7852-5.1914 0-10.164 2.082-13.805 5.7852l-98.109 99.398c-3.1797 3.2188-4.1133 8.0312-2.3633 12.203 1.7461 4.1719 5.832 6.8828 10.355 6.875h51.797v25.992c0.0625 5.0859 4.1719 9.1953 9.2578 9.2578h85.758c2.4531 0 4.8047-0.97656 6.5391-2.7148 1.7305-1.7344 2.7031-4.0898 2.6953-6.543v-25.992h51.797c4.5234 0.007813 8.6094-2.7031 10.355-6.875 1.75-4.1719 0.81641-8.9844-2.3633-12.203z"/>
  <path d="m131.25 551.55c19.383 17.766 36.797 34.828 52.43 51.094 73.445 76.039 123.57 171.52 144.45 275.16 3.5742 18.773 8.8438 37.188 15.75 55.008 7.6406 19.074 20.926 35.355 38.082 46.668 17.152 11.309 37.352 17.105 57.895 16.613 57-1.2188 97.43-4.3359 125.18-7.5938 19.359-2.3438 50.859 0.35156 71.484 2.6016 16.172 1.7656 32.391 2.8984 48.656 3.3984l66.023 2.1094c20.188 0 39.551-8.0156 53.828-22.285 14.281-14.273 22.309-33.629 22.32-53.816 0-1.7109 0-3.3984-0.16406-5.0859-2.5547-39.047-36.234-68.812-75.375-68.812h-101.79c-16.945-0.03125-33.746-3.0859-49.617-9.0234-17.023-4.1562-33.484-10.34-49.031-18.422-5.9453-3.0234-10.57-8.1211-13.004-14.328-2.4336-6.2109-2.5-13.098-0.19141-19.352 2.7773-7.0586 8.4375-12.598 15.559-15.215 7.1172-2.6211 15.016-2.0742 21.707 1.5039 12.48 6.5508 25.742 11.492 39.469 14.695 4.5547 1.1172 9.3047-0.83984 11.758-4.8359 2.4492-3.9961 2.0352-9.1211-1.0234-12.672l-5.3438-6.2109c-12.039-13.961-19.785-31.102-22.312-49.359l-17.695-127.95c-1.0117-7.3164-2.5273-14.551-4.5469-21.656l-26.133-92.227c-9.4609-33.402-9.8242-68.723-1.0508-102.31 8.7734-33.59 26.363-64.223 50.949-88.73l134.34-133.97c4.457-4.3945 6.9688-10.391 6.9805-16.648s-2.4805-12.262-6.9219-16.672-10.465-6.8594-16.723-6.8047h-368.3c-13.957-0.0625-26.977 7.0117-34.523 18.75-8.043 12.566-17.266 24.336-27.539 35.156-17.461 28.125-48.188 83.953-63.539 150.21-1.6523 7.2031-6.2422 13.391-12.652 17.066-6.4141 3.6758-14.07 4.5078-21.121 2.293-13.477-4.125-20.953-18.75-17.742-32.391 5.6289-23.773 12.969-47.105 21.961-69.82 1.6914-4.293 0.87891-9.168-2.1133-12.68-2.9922-3.5117-7.6758-5.0898-12.184-4.1016-43.383 9.1172-102.68 36.562-126.26 116.88-39.117 133.01 78.07 223.76 78.07 223.76z"/>
 </g>
</svg>

<?xml version="1.0" encoding="UTF-8" standalone="no"?>
<!DOCTYPE svg PUBLIC "-//W3C//DTD SVG 1.1//EN" "http://www.w3.org/Graphics/SVG/1.1/DTD/svg11.dtd">
<svg width="100%" height="100%" viewBox="0 0 512 456" version="1.1" xmlns="http://www.w3.org/2000/svg" xmlns:xlink="http://www.w3.org/1999/xlink" xml:space="preserve" xmlns:serif="http://www.serif.com/" style="fill-rule:evenodd;clip-rule:evenodd;stroke-linejoin:round;stroke-miterlimit:2;">
    <g transform="matrix(1,0,0,1,-45.1838,-106.422)">
        <g transform="matrix(0.461444,0,0,0.461444,24.334,57.3141)">
            <path d="M1053.4,939.84C1049.76,936.137 1044.79,934.055 1039.6,934.055C1034.4,934.055 1029.43,936.137 1025.79,939.84L927.681,1039.24C924.501,1042.46 923.568,1047.27 925.318,1051.44C927.064,1055.61 931.15,1058.32 935.673,1058.32L987.47,1058.32L987.47,1084.31C987.532,1089.39 991.642,1093.5 996.728,1093.57L1082.49,1093.57C1084.94,1093.57 1087.29,1092.59 1089.03,1090.85C1090.76,1089.12 1091.73,1086.76 1091.72,1084.31L1091.72,1058.32L1143.52,1058.32C1148.04,1058.32 1152.13,1055.61 1153.87,1051.44C1155.62,1047.27 1154.69,1042.46 1151.51,1039.24L1053.4,939.84Z" style="fill:white;fill-rule:nonzero;"/>
            <path d="M1053.4,683.25C1049.76,679.547 1044.79,677.465 1039.6,677.465C1034.4,677.465 1029.43,679.547 1025.79,683.25L927.681,782.648C924.501,785.867 923.568,790.679 925.318,794.851C927.064,799.023 931.15,801.734 935.673,801.726L987.47,801.726L987.47,827.718C987.532,832.804 991.642,836.913 996.728,836.976L1082.49,836.976C1084.94,836.976 1087.29,835.999 1089.03,834.261C1090.76,832.527 1091.73,830.171 1091.72,827.718L1091.72,801.726L1143.52,801.726C1148.04,801.734 1152.13,799.023 1153.87,794.851C1155.62,790.679 1154.69,785.867 1151.51,782.648L1053.4,683.25Z" style="fill:white;fill-rule:nonzero;"/>
            <path d="M131.25,551.55C150.633,569.316 168.047,586.378 183.68,602.644C257.125,678.683 307.25,774.164 328.13,877.804C331.704,896.577 336.974,914.992 343.88,932.812C351.521,951.886 364.806,968.167 381.962,979.48C399.114,990.789 419.314,996.585 439.857,996.093C496.857,994.874 537.287,991.757 565.037,988.499C584.396,986.155 615.896,988.851 636.521,991.101C652.693,992.866 668.912,993.999 685.177,994.499L751.2,996.609C771.388,996.609 790.751,988.593 805.028,974.324C819.309,960.051 827.337,940.695 827.348,920.508C827.348,918.797 827.348,917.109 827.184,915.422C824.629,876.375 790.95,846.61 751.809,846.61L650.019,846.61C633.074,846.578 616.273,843.524 600.402,837.586C583.379,833.43 566.918,827.246 551.371,819.164C545.426,816.141 540.801,811.043 538.367,804.836C535.933,798.625 535.867,791.738 538.176,785.484C540.953,778.426 546.613,772.886 553.735,770.269C560.852,767.648 568.751,768.195 575.442,771.773C587.922,778.324 601.184,783.265 614.911,786.468C619.465,787.585 624.215,785.628 626.669,781.632C629.118,777.636 628.704,772.511 625.645,768.96L620.301,762.749C608.262,748.788 600.516,731.647 597.989,713.39L580.294,585.44C579.283,578.124 577.767,570.889 575.747,563.784L549.614,471.557C540.154,438.155 539.79,402.834 548.564,369.247C557.337,335.657 574.927,305.024 599.513,280.517L733.853,146.547C738.31,142.153 740.821,136.156 740.833,129.899C740.845,123.642 738.353,117.637 733.911,113.227C729.47,108.817 723.446,106.368 717.188,106.423L348.888,106.423C334.931,106.36 321.911,113.434 314.365,125.173C306.322,137.739 297.099,149.509 286.826,160.329C269.365,188.454 238.638,244.282 223.287,310.539C221.635,317.742 217.045,323.93 210.635,327.605C204.221,331.281 196.565,332.113 189.514,329.898C176.037,325.773 168.561,311.148 171.772,297.507C177.401,273.734 184.741,250.402 193.733,227.687C195.425,223.394 194.612,218.519 191.62,215.007C188.628,211.495 183.944,209.917 179.436,210.905C136.053,220.022 76.756,247.467 53.176,327.785C14.059,460.795 131.246,551.545 131.246,551.545L131.25,551.55Z" style="fill:white;fill-rule:nonzero;"/>
        </g>
    </g>
</svg>
